X: 7443
T:Miss Gayton's Hornpipe
M:4/4
O:England
A:North-West
R:Hornpipe
K:G
dc|\
Bdgf g2dc| Bdgf g2dc| Bbag fed^c| dfag fedc|\
Bdgf g2dc| Bdgf g2gf| efga fgab| gfga g2::\
ga|\
bagb a2f2| gfge d2B2| cdec BcdB| AGAB A2ga|\
bagb a2f2| gfge d2gf| efga fgab| gfga g2:|
